app/dist/common/images/allegion-plc.svg

<svg height="18" width="18" xmlns="http://www.w3.org/2000/svg"><path d="m0 0h18v18h-18z" fill="#ff661e"/><path d="m7.438 4h3.125v3h-3.125zm-3.438 3.437h3v3.125h-3zm0-.437a3 3 0 0 1 3-3v3zm0 4a3 3 0 0 0 3 3v-3zm7 0a3 3 0 0 0 3 3v-3zm-.562 0a3 3 0 0 1 -3 3v-3zm3.562-4a3 3 0 0 0 -3-3v3zm-3 .437h3v3.125h-3z" fill="#fff"/></svg>

<!-- by TradingView --><svg width="18" height="18" xmlns="http://www.w3.org/2000/svg"><path fill="#FF661E" d="M0 0h18v18H0z"/><path fill="#fff" d="M7.438 4h3.125v3H7.438zM4 7.437h3v3.125H4zM4 7a3 3 0 013-3v3H4zM4 11a3 3 0 003 3v-3H4zM11 11a3 3 0 003 3v-3h-3zM10.438 11a3 3 0 01-3 3v-3h3zM14 7a3 3 0 00-3-3v3h3zM11 7.437h3v3.125h-3z"/></svg>
